svg/Tango/apps/help-browser.svg

<?xml version="1.0" encoding="UTF-8" standalone="no"?>
<!-- Created with Inkscape (http://www.inkscape.org/) -->
<svg
   xmlns:dc="http://purl.org/dc/elements/1.1/"
   xmlns:cc="http://creativecommons.org/ns#"
   xmlns:rdf="http://www.w3.org/1999/02/22-rdf-syntax-ns#"
   xmlns:svg="http://www.w3.org/2000/svg"
   xmlns="http://www.w3.org/2000/svg"
   xmlns:xlink="http://www.w3.org/1999/xlink"
   xmlns:sodipodi="http://sodipodi.sourceforge.net/DTD/sodipodi-0.dtd"
   xmlns:inkscape="http://www.inkscape.org/namespaces/inkscape"
   width="48.000000px"
   height="48.000000px"
   id="svg6361"
   sodipodi:version="0.32"
   inkscape:version="0.46"
   sodipodi:docbase="/home/tigert/cvs/freedesktop.org/tango-icon-theme/scalable/apps"
   sodipodi:docname="help-browser.svg"
   inkscape:output_extension="org.inkscape.output.svg.inkscape">
  <defs
     id="defs3">
    <inkscape:perspective
       sodipodi:type="inkscape:persp3d"
       inkscape:vp_x="0 : 24 : 1"
       inkscape:vp_y="0 : 1000 : 0"
       inkscape:vp_z="48 : 24 : 1"
       inkscape:persp3d-origin="24 : 16 : 1"
       id="perspective23" />
    <linearGradient
       id="linearGradient2431">
      <stop
         style="stop-color:#ffffff;stop-opacity:1;"
         offset="0"
         id="stop2433" />
      <stop
         style="stop-color:#b8b8b8;stop-opacity:1;"
         offset="1"
         id="stop2435" />
    </linearGradient>
    <linearGradient
       inkscape:collect="always"
       id="linearGradient21644">
      <stop
         style="stop-color:#000000;stop-opacity:1;"
         offset="0"
         id="stop21646" />
      <stop
         style="stop-color:#000000;stop-opacity:0;"
         offset="1"
         id="stop21648" />
    </linearGradient>
    <radialGradient
       inkscape:collect="always"
       xlink:href="#linearGradient21644"
       id="radialGradient21650"
       cx="25.125"
       cy="36.75"
       fx="25.125"
       fy="36.75"
       r="15.75"
       gradientTransform="matrix(1.000000,0.000000,0.000000,0.595238,3.369686e-16,14.87500)"
       gradientUnits="userSpaceOnUse" />
    <linearGradient
       id="linearGradient2933">
      <stop
         id="stop2935"
         offset="0"
         style="stop-color:#9cbcde;stop-opacity:1" />
      <stop
         id="stop2937"
         offset="1"
         style="stop-color:#204a87" />
    </linearGradient>
    <radialGradient
       inkscape:collect="always"
       xlink:href="#linearGradient2933"
       id="radialGradient2207"
       cx="26.544321"
       cy="28.458725"
       fx="26.544321"
       fy="28.458725"
       r="22.376116"
       gradientUnits="userSpaceOnUse"
       gradientTransform="matrix(1.238342,5.954846e-3,-6.507762e-3,1.351272,-6.992513,-9.744842)" />
    <radialGradient
       inkscape:collect="always"
       xlink:href="#linearGradient2431"
       id="radialGradient2437"
       cx="-19.515638"
       cy="16.855663"
       fx="-19.515638"
       fy="16.855663"
       r="8.7536434"
       gradientTransform="matrix(4.445991,-8.852599e-16,1.367217e-15,6.8665,67.25071,-104.6679)"
       gradientUnits="userSpaceOnUse" />
  </defs>
  <sodipodi:namedview
     inkscape:guide-bbox="true"
     showguides="true"
     id="base"
     pagecolor="#ffffff"
     bordercolor="#666666"
     borderopacity="0.15294118"
     inkscape:pageopacity="0.0"
     inkscape:pageshadow="2"
     inkscape:zoom="1"
     inkscape:cx="25.160747"
     inkscape:cy="22.523569"
     inkscape:current-layer="layer1"
     showgrid="true"
     inkscape:grid-bbox="true"
     inkscape:document-units="px"
     inkscape:window-width="1014"
     inkscape:window-height="818"
     inkscape:window-x="0"
     inkscape:window-y="30"
     inkscape:showpageshadow="false"
     fill="#deb887"
     stroke="#204a87">
    <inkscape:grid
       id="GridFromPre046Settings"
       type="xygrid"
       originx="0px"
       originy="0px"
       spacingx="1px"
       spacingy="1px"
       color="#7171cd"
       empcolor="#7b7bc3"
       opacity="0.12156863"
       empopacity="0.5372549"
       empspacing="10"
       visible="true"
       enabled="true" />
  </sodipodi:namedview>
  <metadata
     id="metadata4">
    <rdf:RDF>
      <cc:Work
         rdf:about="">
        <dc:format>image/svg+xml</dc:format>
        <dc:type
           rdf:resource="http://purl.org/dc/dcmitype/StillImage" />
        <dc:title>Help Browser</dc:title>
        <dc:date>2005-11-06</dc:date>
        <dc:creator>
          <cc:Agent>
            <dc:title>Tuomas Kuosmanen</dc:title>
          </cc:Agent>
        </dc:creator>
        <dc:subject>
          <rdf:Bag>
            <rdf:li>help</rdf:li>
            <rdf:li>browser</rdf:li>
            <rdf:li>documentation</rdf:li>
            <rdf:li>docs</rdf:li>
            <rdf:li>man</rdf:li>
            <rdf:li>info</rdf:li>
          </rdf:Bag>
        </dc:subject>
        <cc:license
           rdf:resource="http://creativecommons.org/licenses/publicdomain/" />
        <dc:contributor>
          <cc:Agent>
            <dc:title>Jakub Steiner, Andreas Nilsson</dc:title>
          </cc:Agent>
        </dc:contributor>
        <dc:source>http://tigert.com</dc:source>
      </cc:Work>
      <cc:License
         rdf:about="http://creativecommons.org/licenses/publicdomain/">
        <cc:permits
           rdf:resource="http://creativecommons.org/ns#Reproduction" />
        <cc:permits
           rdf:resource="http://creativecommons.org/ns#Distribution" />
        <cc:permits
           rdf:resource="http://creativecommons.org/ns#DerivativeWorks" />
      </cc:License>
    </rdf:RDF>
  </metadata>
  <g
     id="layer1"
     inkscape:label="Layer 1"
     inkscape:groupmode="layer">
    <path
       sodipodi:type="arc"
       style="opacity:0.63068181;color:#000000;fill:url(#radialGradient21650);fill-opacity:1.0000000;fill-rule:evenodd;stroke:none;stroke-width:1.0000000;stroke-linecap:round;stroke-linejoin:round;marker:none;marker-start:none;marker-mid:none;marker-end:none;stroke-miterlimit:4.0000000;stroke-dasharray:none;stroke-dashoffset:0.0000000;stroke-opacity:1.0000000;visibility:visible;display:inline;overflow:visible"
       id="path21642"
       sodipodi:cx="25.125000"
       sodipodi:cy="36.750000"
       sodipodi:rx="15.750000"
       sodipodi:ry="9.3750000"
       d="M 40.875000 36.750000 A 15.750000 9.3750000 0 1 1  9.3750000,36.750000 A 15.750000 9.3750000 0 1 1  40.875000 36.750000 z"
       transform="matrix(1.173803,0.000000,0.000000,0.600000,-5.004403,20.32500)" />
    <path
       sodipodi:type="arc"
       style="fill:url(#radialGradient2207);fill-opacity:1.0000000;stroke:#204a87"
       id="path2093"
       sodipodi:cx="23.909048"
       sodipodi:cy="23.825787"
       sodipodi:rx="21.876116"
       sodipodi:ry="21.876116"
       d="M 45.785164 23.825787 A 21.876116 21.876116 0 1 1  2.0329323,23.825787 A 21.876116 21.876116 0 1 1  45.785164 23.825787 z"
       transform="matrix(0.938442,0.000000,0.000000,0.938680,1.564075,1.633906)" />
    <path
       transform="matrix(0.855103,0.000000,0.000000,0.855213,3.555288,3.625019)"
       d="M 45.785164 23.825787 A 21.876116 21.876116 0 1 1  2.0329323,23.825787 A 21.876116 21.876116 0 1 1  45.785164 23.825787 z"
       sodipodi:ry="21.876116"
       sodipodi:rx="21.876116"
       sodipodi:cy="23.825787"
       sodipodi:cx="23.909048"
       id="path2209"
       style="fill:none;fill-opacity:1.0000000;stroke:#ffffff;stroke-width:3.0307744;stroke-miterlimit:4.0000000;stroke-dasharray:none;stroke-opacity:1.0000000;opacity:0.96022727"
       sodipodi:type="arc" />
    <path
       sodipodi:type="inkscape:offset"
       inkscape:radius="0.13495015"
       inkscape:original="M -20.25 6 C -21.298341 6.000026 -22.372769 6.1244771 -23.5 6.34375 C -24.627244 6.563073 -25.886043 6.8832479 -27.25 7.34375 L -27.25 12.5 C -26.100219 11.776335 -24.997109 11.236862 -23.9375 10.875 C -22.877902 10.502213 -21.881822 10.312521 -20.96875 10.3125 C -19.999334 10.312521 -19.259834 10.530174 -18.71875 10.96875 C -18.177686 11.396402 -17.906262 12.013726 -17.90625 12.78125 C -17.906261 13.285654 -18.039408 13.776881 -18.34375 14.28125 C -18.636843 14.785651 -19.107484 15.33609 -19.75 15.90625 L -20.84375 16.84375 C -22.038631 17.918325 -22.815518 18.829509 -23.1875 19.53125 C -23.559495 20.22205 -23.750005 21.007137 -23.75 21.90625 L -23.75 22.71875 L -17.65625 22.71875 L -17.65625 21.96875 C -17.656262 21.475338 -17.517981 21.030712 -17.28125 20.625 C -17.044542 20.208345 -16.547785 19.648586 -15.78125 18.96875 L -14.71875 18.03125 C -13.659161 17.055386 -12.908389 16.156813 -12.46875 15.3125 C -12.029144 14.457253 -11.781268 13.480828 -11.78125 12.40625 C -11.781268 10.311973 -12.525902 8.7417969 -13.96875 7.65625 C -15.41163 6.559783 -17.499549 6.0000261 -20.25 6 z M -23.75 25.15625 L -23.75 31 L -17.65625 31 L -17.65625 25.15625 L -23.75 25.15625 z "
       xlink:href="#text2215"
       style="font-size:34.15322876px;font-style:normal;font-variant:normal;font-weight:bold;font-stretch:normal;text-align:start;line-height:125%;writing-mode:lr-tb;text-anchor:start;fill:url(#radialGradient2437);fill-opacity:1;stroke:#ffffff;stroke-width:1.09947276px;stroke-linecap:butt;stroke-linejoin:miter;stroke-opacity:0.78612713;font-family:Bitstream Vera Sans"
       id="path1554"
       d="M -20.25,5.875 C -21.309019,5.8750263 -22.397637,5.9982356 -23.53125,6.21875 C -24.664175,6.4391783 -25.911412,6.7562625 -27.28125,7.21875 C -27.291632,7.21754 -27.302118,7.21754 -27.3125,7.21875 C -27.324563,7.2273788 -27.335121,7.237937 -27.34375,7.25 C -27.355813,7.2586288 -27.366371,7.269187 -27.375,7.28125 C -27.37621,7.2916315 -27.37621,7.3021185 -27.375,7.3125 C -27.37621,7.3228815 -27.37621,7.3333685 -27.375,7.34375 L -27.375,12.5 C -27.37621,12.510382 -27.37621,12.520868 -27.375,12.53125 C -27.37621,12.541632 -27.37621,12.552118 -27.375,12.5625 C -27.366371,12.574563 -27.355813,12.585121 -27.34375,12.59375 C -27.335121,12.605813 -27.324563,12.616371 -27.3125,12.625 C -27.302118,12.62621 -27.291632,12.62621 -27.28125,12.625 C -27.270868,12.62621 -27.260382,12.62621 -27.25,12.625 C -27.239618,12.62621 -27.229132,12.62621 -27.21875,12.625 C -27.208368,12.62621 -27.197882,12.62621 -27.1875,12.625 C -26.045062,11.905957 -24.954148,11.357862 -23.90625,11 C -22.858109,10.631244 -21.863134,10.437521 -20.96875,10.4375 C -20.019532,10.437521 -19.323825,10.648045 -18.8125,11.0625 C -18.303777,11.46459 -18.031262,12.04554 -18.03125,12.78125 C -18.03126,13.261907 -18.175438,13.73266 -18.46875,14.21875 C -18.751741,14.705766 -19.209015,15.249245 -19.84375,15.8125 L -20.9375,16.75 C -22.138959,17.83049 -22.926743,18.741022 -23.3125,19.46875 C -23.695613,20.180196 -23.875005,20.988074 -23.875,21.90625 L -23.875,22.71875 C -23.87621,22.729132 -23.87621,22.739618 -23.875,22.75 C -23.87621,22.760382 -23.87621,22.770868 -23.875,22.78125 C -23.866371,22.793313 -23.855813,22.803871 -23.84375,22.8125 C -23.835121,22.824563 -23.824563,22.835121 -23.8125,22.84375 C -23.802118,22.84496 -23.791632,22.84496 -23.78125,22.84375 C -23.770868,22.84496 -23.760382,22.84496 -23.75,22.84375 L -17.65625,22.84375 C -17.645868,22.84496 -17.635382,22.84496 -17.625,22.84375 C -17.614618,22.84496 -17.604132,22.84496 -17.59375,22.84375 C -17.581687,22.835121 -17.571129,22.824563 -17.5625,22.8125 C -17.550437,22.803871 -17.539879,22.793313 -17.53125,22.78125 C -17.53004,22.770868 -17.53004,22.760382 -17.53125,22.75 C -17.53004,22.739618 -17.53004,22.729132 -17.53125,22.71875 L -17.53125,21.96875 C -17.531261,21.500554 -17.38288,21.075901 -17.15625,20.6875 C -16.933955,20.296216 -16.448177,19.737141 -15.6875,19.0625 L -14.625,18.125 C -13.558412,17.14269 -12.794341,16.240346 -12.34375,15.375 C -11.894481,14.500954 -11.656268,13.50158 -11.65625,12.40625 C -11.656268,10.279985 -12.400019,8.6722224 -13.875,7.5625 C -15.350197,6.4414748 -17.48124,5.8750263 -20.25,5.875 z M -23.8125,25.03125 C -23.824563,25.039879 -23.835121,25.050437 -23.84375,25.0625 C -23.855813,25.071129 -23.866371,25.081687 -23.875,25.09375 C -23.87621,25.104132 -23.87621,25.114618 -23.875,25.125 C -23.87621,25.135382 -23.87621,25.145868 -23.875,25.15625 L -23.875,31 C -23.87621,31.010382 -23.87621,31.020868 -23.875,31.03125 C -23.87621,31.041632 -23.87621,31.052118 -23.875,31.0625 C -23.866371,31.074563 -23.855813,31.085121 -23.84375,31.09375 C -23.835121,31.105813 -23.824563,31.116371 -23.8125,31.125 C -23.802118,31.12621 -23.791632,31.12621 -23.78125,31.125 C -23.770868,31.12621 -23.760382,31.12621 -23.75,31.125 L -17.65625,31.125 C -17.645868,31.12621 -17.635382,31.12621 -17.625,31.125 C -17.614618,31.12621 -17.604132,31.12621 -17.59375,31.125 C -17.581687,31.116371 -17.571129,31.105813 -17.5625,31.09375 C -17.550437,31.085121 -17.539879,31.074563 -17.53125,31.0625 C -17.53004,31.052118 -17.53004,31.041632 -17.53125,31.03125 C -17.53004,31.020868 -17.53004,31.010382 -17.53125,31 L -17.53125,25.15625 C -17.53004,25.145868 -17.53004,25.135382 -17.53125,25.125 C -17.53004,25.114618 -17.53004,25.104132 -17.53125,25.09375 C -17.539879,25.081687 -17.550437,25.071129 -17.5625,25.0625 C -17.571129,25.050437 -17.581687,25.039879 -17.59375,25.03125 C -17.604132,25.03004 -17.614618,25.03004 -17.625,25.03125 C -17.635382,25.03004 -17.645868,25.03004 -17.65625,25.03125 L -23.75,25.03125 C -23.760382,25.03004 -23.770868,25.03004 -23.78125,25.03125 C -23.791632,25.03004 -23.802118,25.03004 -23.8125,25.03125 z "
       transform="matrix(0.849895,0,0,0.835205,41.72981,8.548327)" />
  </g>
</svg>

<svg xmlns="http://www.w3.org/2000/svg" viewBox="0 0 48 48"><defs><radialGradient id="0" cx="25.12" cy="36.75" r="15.75" gradientTransform="matrix(1 0 0 .59524 0 14.875)" gradientUnits="userSpaceOnUse"><stop/><stop offset="1" stop-opacity="0"/></radialGradient><radialGradient id="1" cx="26.544" cy="28.459" r="22.376" gradientUnits="userSpaceOnUse" gradientTransform="matrix(1.23834.00595-.00651 1.35127-6.993-9.745)"><stop stop-color="#9cbcde"/><stop offset="1" stop-color="#204a87"/></radialGradient><radialGradient id="2" cx="-19.516" cy="16.856" r="8.754" gradientTransform="matrix(4.44599 0 0 6.8665 67.25-104.67)" gradientUnits="userSpaceOnUse"><stop stop-color="#fff"/><stop offset="1" stop-color="#b8b8b8"/></radialGradient></defs><path d="M40.875 36.75A15.75 9.375 0 1 1 9.375 36.75 15.75 9.375 0 1 1 40.875 36.75" transform="matrix(1.1738 0 0 .6-5 20.325)" opacity=".631" color="#000" fill-rule="evenodd" fill="url(#0)"/><path d="M45.785164 23.825787A21.876116 21.876116 0 1 1 2.032932 23.825787 21.876116 21.876116 0 1 1 45.785164 23.825787z" transform="matrix(.93844 0 0 .93868 1.564 1.634)" fill="url(#1)" stroke="#204a87"/><g stroke="#fff"><path transform="matrix(.8551 0 0 .85521 3.555 3.625)" d="M45.785164 23.825787A21.876116 21.876116 0 1 1 2.032932 23.825787 21.876116 21.876116 0 1 1 45.785164 23.825787z" opacity=".96" fill="none" stroke-width="3.03"/><path d="m-20.25 5.875c-1.059 0-2.148.123-3.281.344-1.133.22-2.38.538-3.75 1-.001-.0001-.021-.0001-.031 0-.012.009-.023.019-.031.031-.012.009-.023.019-.031.031-.0001.001-.0001.021 0 .031-.0001.001-.0001.021 0 .031v5.156c-.0001.001-.0001.021 0 .031-.0001.001-.0001.021 0 .031.009.012.019.023.031.031.009.012.019.023.031.031.001.0001.021.0001.031 0 .001.0001.021.0001.031 0 .001.0001.021.0001.031 0 .001.0001.021.0001.031 0 1.142-.719 2.233-1.267 3.281-1.625 1.048-.369 2.043-.562 2.938-.563.949 0 1.645.211 2.156.625.509.402.781.983.781 1.719 0 .481-.144.951-.438 1.438-.283.487-.74 1.03-1.375 1.594l-1.094.938c-1.201 1.08-1.989 1.991-2.375 2.719-.383.711-.563 1.519-.563 2.438v.813c-.0001.001-.0001.021 0 .031-.0001.001-.0001.021 0 .031.009.012.019.023.031.031.009.012.019.023.031.031.001.0001.021.0001.031 0 .001.0001.021.0001.031 0h6.094c.001.0001.021.0001.031 0 .001.0001.021.0001.031 0 .012-.009.023-.019.031-.031.012-.009.023-.019.031-.031.0001-.001.0001-.021 0-.031.0001-.001.0001-.021 0-.031v-.75c0-.468.148-.893.375-1.281.222-.391.708-.95 1.469-1.625l1.063-.938c1.067-.982 1.831-1.885 2.281-2.75.449-.874.687-1.873.688-2.969 0-2.126-.744-3.734-2.219-4.844-1.475-1.121-3.606-1.687-6.375-1.688zm-3.563 19.16c-.012.009-.023.019-.031.031-.012.009-.023.019-.031.031-.0001.001-.0001.021 0 .031-.0001.001-.0001.021 0 .031v5.844c-.0001.001-.0001.021 0 .031-.0001.001-.0001.021 0 .031.009.012.019.023.031.031.009.012.019.023.031.031.001.0001.021.0001.031 0 .001.0001.021.0001.031 0h6.094c.001.0001.021.0001.031 0 .001.0001.021.0001.031 0 .012-.009.023-.019.031-.031.012-.009.023-.019.031-.031.0001-.001.0001-.021 0-.031.0001-.001.0001-.021 0-.031v-5.844c.0001-.001.0001-.021 0-.031.0001-.001.0001-.021 0-.031-.009-.012-.019-.023-.031-.031-.009-.012-.019-.023-.031-.031-.001-.0001-.021-.0001-.031 0-.001-.0001-.021-.0001-.031 0h-6.094c-.001-.0001-.021-.0001-.031 0-.001-.0001-.021-.0001-.031 0z" transform="matrix(.84989 0 0 .8352 41.73 8.548)" stroke-opacity=".786" fill="url(#2)" stroke-width="1.099"/></g></svg>
